X:1
T:Take The A Train
C:Ellington-Strayhorrn
L:1/4
M:C
I:linebreak $
K:C
"C" G4 | z e G c |"D7b5" e _A3 | z4 |$"Dm" A4 | A/_B/=B/e/ G/_G/F/d/ |"C" c E3 ||1
"Dm" z2"G7" z2 :|2"C" z4 ||$"F" A c z2 | e F A c |"F6" e A z2 | z4 |$"D7" A c z2 | e ^F A c |
"Dm" e A z2 |"G7" A2"_D.C. al 3rd end." _A2 ||3"C" c4 |]

